pix_core/e/clear_formatting.svg

<svg preserveAspectRatio="xMinYMid meet" viewBox="0 0 576 512" xmlns="http://www.w3.org/2000/svg"><path d="m290.7 57.4-233.3 233.3c-25 25-25 65.5 0 90.5l80 80c12 12 28.3 18.7 45.3 18.7h105.3 9.4 214.6c17.7 0 32-14.3 32-32s-14.3-32-32-32h-124.1l130.7-130.6c25-25 25-65.5 0-90.5l-137.3-137.4c-25-25-65.5-25-90.5 0zm6.7 358.6h-9.4-105.4l-80-80 124.7-124.7 137.4 137.4z" fill="#fff"/></svg>

<svg xmlns="http://www.w3.org/2000/svg" viewBox="0 0 576 512" preserveAspectRatio="xMinYMid meet"><path fill="#fff" d="M290.7 57.4L57.4 290.7c-25 25-25 65.5 0 90.5l80 80c12 12 28.3 18.7 45.3 18.7H288h9.4H512c17.7 0 32-14.3 32-32s-14.3-32-32-32H387.9L518.6 285.3c25-25 25-65.5 0-90.5L381.3 57.4c-25-25-65.5-25-90.5 0zM297.4 416H288l-105.4 0-80-80L227.3 211.3 364.7 348.7 297.4 416z"/></svg>
